src/assets/outline/Rotate3d.svg

<svg width="24" height="24" viewBox="0 0 24 24"  xmlns="http://www.w3.org/2000/svg">
<path d="M12.0001 13.0797C11.8701 13.0797 11.7401 13.0497 11.6201 12.9797L6.32013 9.9197C5.96013 9.7097 5.84011 9.2497 6.05011 8.8997C6.26011 8.5397 6.7101 8.4197 7.0801 8.6297L12.0001 11.4797L16.8901 8.6497C17.2501 8.4397 17.7101 8.5697 17.9201 8.9197C18.1301 9.2797 18.0001 9.7397 17.6501 9.9397L12.3901 12.9797C12.2601 13.0397 12.1301 13.0797 12.0001 13.0797Z" />
<path d="M12 18.5201C11.59 18.5201 11.25 18.1801 11.25 17.7701V12.3301C11.25 11.9201 11.59 11.5801 12 11.5801C12.41 11.5801 12.75 11.9201 12.75 12.3301V17.7701C12.75 18.1801 12.41 18.5201 12 18.5201Z" />
<path d="M12.0002 18.7498C11.4202 18.7498 10.8503 18.6198 10.3903 18.3698L7.19025 16.5898C6.23025 16.0598 5.49023 14.7898 5.49023 13.6898V10.2998C5.49023 9.20981 6.24025 7.9298 7.19025 7.3998L10.3903 5.6198C11.3103 5.1098 12.6902 5.1098 13.6102 5.6198L16.8102 7.3998C17.7702 7.9298 18.5103 9.19981 18.5103 10.2998V13.6898C18.5103 14.7798 17.7602 16.0598 16.8102 16.5898L13.6102 18.3698C13.1502 18.6198 12.5802 18.7498 12.0002 18.7498ZM12.0002 6.7498C11.6702 6.7498 11.3502 6.8098 11.1202 6.9398L7.92026 8.7198C7.43026 8.9898 6.99023 9.7498 6.99023 10.2998V13.6898C6.99023 14.2498 7.43026 14.9998 7.92026 15.2698L11.1202 17.0498C11.5802 17.3098 12.4202 17.3098 12.8802 17.0498L16.0802 15.2698C16.5702 14.9998 17.0103 14.2398 17.0103 13.6898V10.2998C17.0103 9.73981 16.5702 8.9898 16.0802 8.7198L12.8802 6.9398C12.6502 6.8098 12.3302 6.7498 12.0002 6.7498Z" />
<path d="M15.0002 22.7502C14.7302 22.7502 14.4802 22.6002 14.3502 22.3702C14.2202 22.1302 14.2202 21.8502 14.3602 21.6102L15.4102 19.8602C15.6202 19.5102 16.0802 19.3902 16.4402 19.6002C16.8002 19.8102 16.9102 20.2702 16.7002 20.6302L16.4302 21.0802C19.1902 20.4302 21.2602 17.9502 21.2602 14.9902C21.2602 14.5802 21.6002 14.2402 22.0102 14.2402C22.4202 14.2402 22.7602 14.5802 22.7602 14.9902C22.7502 19.2702 19.2702 22.7502 15.0002 22.7502Z" />
<path d="M2 9.75C1.59 9.75 1.25 9.41 1.25 9C1.25 4.73 4.73 1.25 9 1.25C9.27 1.25 9.51999 1.4 9.64999 1.63C9.77999 1.87 9.78001 2.15 9.64001 2.39L8.59 4.14C8.38 4.49 7.92 4.61 7.56 4.4C7.2 4.19 7.08999 3.73 7.29999 3.37L7.57001 2.92C4.81001 3.57 2.73999 6.05 2.73999 9.01C2.74999 9.41 2.41 9.75 2 9.75Z" />
</svg>

<?xml version="1.0" encoding="UTF-8"?>
<svg width="24" height="24" viewBox="0 0 24 24" xmlns="http://www.w3.org/2000/svg">
 <path d="m12 13.08c-0.13 0-0.26-0.03-0.38-0.1l-5.3-3.06c-0.36-0.21-0.48002-0.67-0.27002-1.02 0.21-0.36 0.65999-0.48 1.03-0.27l4.92 2.85 4.89-2.83c0.36-0.21 0.82-0.08 1.03 0.27 0.21 0.36 0.08 0.82-0.27 1.02l-5.26 3.04c-0.13 0.06-0.26 0.1-0.39 0.1z"/>
 <path d="m12 18.52c-0.41 0-0.75-0.34-0.75-0.75v-5.44c0-0.41 0.34-0.75 0.75-0.75s0.75 0.34 0.75 0.75v5.44c0 0.41-0.34 0.75-0.75 0.75z"/>
 <path d="m12 18.75c-0.58 0-1.1499-0.13-1.6099-0.38l-3.2-1.78c-0.96-0.53-1.7-1.8-1.7-2.9v-3.39c0-1.09 0.75002-2.37 1.7-2.9l3.2-1.78c0.92-0.51 2.2999-0.51 3.2199 0l3.2 1.78c0.96 0.53 1.7001 1.8 1.7001 2.9v3.39c0 1.09-0.7501 2.37-1.7001 2.9l-3.2 1.78c-0.46 0.25-1.03 0.38-1.61 0.38zm0-12c-0.33 0-0.65 0.06-0.88 0.19l-3.1999 1.78c-0.49 0.27-0.93003 1.03-0.93003 1.58v3.39c0 0.56 0.44003 1.31 0.93003 1.58l3.1999 1.78c0.46 0.26 1.3 0.26 1.76 0l3.2-1.78c0.49-0.27 0.9301-1.03 0.9301-1.58v-3.39c0-0.55999-0.4401-1.31-0.9301-1.58l-3.2-1.78c-0.23-0.13-0.55-0.19-0.88-0.19z"/>
 <path d="m15 22.75c-0.27 0-0.52-0.15-0.65-0.38-0.13-0.24-0.13-0.52 0.01-0.76l1.05-1.75c0.21-0.35 0.67-0.47 1.03-0.26s0.47 0.67 0.26 1.03l-0.27 0.45c2.76-0.65 4.83-3.13 4.83-6.09 0-0.41 0.34-0.75 0.75-0.75s0.75 0.34 0.75 0.75c-0.01 4.28-3.49 7.76-7.76 7.76z"/>
 <path d="m2 9.75c-0.41 0-0.75-0.34-0.75-0.75 0-4.27 3.48-7.75 7.75-7.75 0.27 0 0.51999 0.15 0.64999 0.38 0.13 0.24 0.13002 0.52-0.00998 0.76l-1.05 1.75c-0.21 0.35-0.67 0.47-1.03 0.26s-0.47001-0.67-0.26001-1.03l0.27002-0.45c-2.76 0.65-4.83 3.13-4.83 6.09 0.01 0.4-0.32999 0.74-0.73999 0.74z"/>
</svg>
